PortfolioPage/assets/software/photoshop.svg

<svg xmlns="http://www.w3.org/2000/svg" width="512" height="512" fill="none" viewBox="0 0 512 512">
  <g clip-path="url(#a)">
    <path fill="#001E36" d="M90.6667 0H421.333C471.467 0 512 41.5727 512 92.9915V419.009C512 470.427 471.467 512 421.333 512H90.6667C40.5333 512 0 470.427 0 419.009V92.9915C0 41.5727 40.5333 0 90.6667 0Z"/>
    <path fill="#31A8FF" d="M115.2 359.056V133.908c0-1.532.64-2.407 2.133-2.407 3.627 0 7.04 0 11.947-.219 5.12-.219 10.453-.219 16.213-.438 5.76-.218 11.947-.218 18.56-.437 6.614-.219 13.014-.219 19.414-.219 17.493 0 32 2.188 43.946 6.783 10.667 3.72 20.48 9.846 28.587 17.942 6.827 7.002 12.16 15.535 15.573 24.943 3.2 9.19 4.907 18.599 4.907 28.445 0 18.817-4.267 34.352-12.8 46.605-8.533 12.253-20.48 21.443-34.347 26.694-14.506 5.47-30.506 7.439-48 7.439-5.12 0-8.533 0-10.666-.218-2.134-.219-5.12-.219-9.174-.219v70.236c.214 1.531-.853 2.844-2.346 3.063H117.76c-1.707 0-2.56-.875-2.56-2.845Zm46.507-185.326v73.518c2.986.219 5.76.437 8.32.437h11.306c8.32 0 16.64-1.312 24.534-3.938 6.826-1.969 12.8-6.126 17.493-11.597 4.48-5.47 6.613-12.909 6.613-22.536.214-6.783-1.493-13.566-4.906-19.474-3.627-5.689-8.747-10.065-14.934-12.472-7.893-3.282-16.426-4.594-25.173-4.376-5.547 0-10.453 0-14.507.219-4.266-.219-7.253 0-8.746.219ZM409.6 233.901c-6.4-3.501-13.227-5.908-20.48-7.439-7.893-1.751-15.787-2.845-23.893-2.845-4.267-.219-8.747.438-12.8 1.532-2.774.656-5.12 2.188-6.614 4.376-1.066 1.75-1.706 3.938-1.706 5.907 0 1.97.853 3.939 2.133 5.689 1.92 2.407 4.48 4.376 7.253 5.908 4.907 2.626 10.027 5.033 15.147 7.221 11.52 3.938 22.613 9.408 32.853 15.972 7.04 4.595 12.8 10.722 16.854 18.161 3.413 7.002 5.12 14.66 4.906 22.537.214 10.283-2.773 20.567-8.32 29.1-5.973 8.753-14.293 15.536-23.893 19.474-10.453 4.595-23.253 7.002-38.613 7.002-9.814 0-19.414-.875-29.014-2.845-7.466-1.313-14.933-3.719-21.76-7.001-1.493-.876-2.56-2.407-2.346-4.158v-38.071c0-.657.213-1.532.853-1.97.64-.437 1.28-.219 1.92.219 8.32 5.033 17.067 8.533 26.453 10.721 8.107 2.188 16.64 3.283 25.174 3.283 8.106 0 13.866-1.095 17.706-3.064 3.414-1.531 5.76-5.251 5.76-9.189 0-3.064-1.706-5.908-5.12-8.753-3.413-2.844-10.453-6.126-20.906-10.283-10.88-3.939-20.907-9.19-30.294-15.754-6.613-4.814-12.16-11.159-16.213-18.599-3.413-7.001-5.12-14.659-4.907-22.317 0-9.409 2.56-18.38 7.254-26.476 5.333-8.752 13.226-15.754 22.4-20.13 10.026-5.251 22.613-7.658 37.76-7.658 8.746 0 17.706.657 26.453 1.97 6.4.875 12.587 2.625 18.347 5.032.853.219 1.706 1.094 2.133 1.969.213.875.427 1.751.427 2.626v35.665c0 .875-.427 1.75-1.067 2.188-1.92.437-2.987.437-3.84 0Z"/>
  </g>
  <defs>
    <clipPath id="a">
      <path fill="#fff" d="M0 0h512v512H0z"/>
    </clipPath>
  </defs>
</svg>

<svg width="512" height="512" viewBox="0 0 512 512" fill="none" xmlns="http://www.w3.org/2000/svg">
<g clip-path="url(#clip0_420_36)">
<path d="M90.6667 0H421.333C471.467 0 512 41.5727 512 92.9915V419.009C512 470.427 471.467 512 421.333 512H90.6667C40.5333 512 0 470.427 0 419.009V92.9915C0 41.5727 40.5333 0 90.6667 0Z" fill="#001E36"/>
<path d="M115.2 359.056V133.908C115.2 132.376 115.84 131.501 117.333 131.501C120.96 131.501 124.373 131.501 129.28 131.282C134.4 131.063 139.733 131.063 145.493 130.844C151.253 130.626 157.44 130.626 164.053 130.407C170.667 130.188 177.067 130.188 183.467 130.188C200.96 130.188 215.467 132.376 227.413 136.971C238.08 140.691 247.893 146.817 256 154.913C262.827 161.915 268.16 170.448 271.573 179.856C274.773 189.046 276.48 198.455 276.48 208.301C276.48 227.118 272.213 242.653 263.68 254.906C255.147 267.159 243.2 276.349 229.333 281.6C214.827 287.07 198.827 289.039 181.333 289.039C176.213 289.039 172.8 289.039 170.667 288.821C168.533 288.602 165.547 288.602 161.493 288.602V358.838C161.707 360.369 160.64 361.682 159.147 361.901C158.933 361.901 158.72 361.901 158.293 361.901H117.76C116.053 361.901 115.2 361.026 115.2 359.056ZM161.707 173.73V247.248C164.693 247.467 167.467 247.685 170.027 247.685H181.333C189.653 247.685 197.973 246.373 205.867 243.747C212.693 241.778 218.667 237.621 223.36 232.15C227.84 226.68 229.973 219.241 229.973 209.614C230.187 202.831 228.48 196.048 225.067 190.14C221.44 184.451 216.32 180.075 210.133 177.668C202.24 174.386 193.707 173.074 184.96 173.292C179.413 173.292 174.507 173.292 170.453 173.511C166.187 173.292 163.2 173.511 161.707 173.73Z" fill="#31A8FF"/>
<path d="M409.6 233.901C403.2 230.4 396.373 227.993 389.12 226.462C381.227 224.711 373.333 223.617 365.227 223.617C360.96 223.398 356.48 224.055 352.427 225.149C349.653 225.805 347.307 227.337 345.813 229.525C344.747 231.275 344.107 233.463 344.107 235.432C344.107 237.402 344.96 239.371 346.24 241.121C348.16 243.528 350.72 245.497 353.493 247.029C358.4 249.655 363.52 252.062 368.64 254.25C380.16 258.188 391.253 263.658 401.493 270.222C408.533 274.817 414.293 280.944 418.347 288.383C421.76 295.385 423.467 303.043 423.253 310.92C423.467 321.203 420.48 331.487 414.933 340.02C408.96 348.773 400.64 355.556 391.04 359.494C380.587 364.089 367.787 366.496 352.427 366.496C342.613 366.496 333.013 365.621 323.413 363.651C315.947 362.338 308.48 359.932 301.653 356.65C300.16 355.774 299.093 354.243 299.307 352.492V314.421C299.307 313.764 299.52 312.889 300.16 312.451C300.8 312.014 301.44 312.232 302.08 312.67C310.4 317.703 319.147 321.203 328.533 323.391C336.64 325.579 345.173 326.674 353.707 326.674C361.813 326.674 367.573 325.579 371.413 323.61C374.827 322.079 377.173 318.359 377.173 314.421C377.173 311.357 375.467 308.513 372.053 305.668C368.64 302.824 361.6 299.542 351.147 295.385C340.267 291.446 330.24 286.195 320.853 279.631C314.24 274.817 308.693 268.472 304.64 261.032C301.227 254.031 299.52 246.373 299.733 238.715C299.733 229.306 302.293 220.335 306.987 212.239C312.32 203.487 320.213 196.485 329.387 192.109C339.413 186.858 352 184.451 367.147 184.451C375.893 184.451 384.853 185.108 393.6 186.421C400 187.296 406.187 189.046 411.947 191.453C412.8 191.672 413.653 192.547 414.08 193.422C414.293 194.297 414.507 195.173 414.507 196.048V231.713C414.507 232.588 414.08 233.463 413.44 233.901C411.52 234.338 410.453 234.338 409.6 233.901Z" fill="#31A8FF"/>
</g>
<defs>
<clipPath id="clip0_420_36">
<rect width="512" height="512" fill="white"/>
</clipPath>
</defs>
</svg>
